X: 1
T: Funky Reel, The
M: 4/4
L: 1/8
R: reel
K: Dmix
|:EABc AEAc|B2 Bc BAGF|EABc AEAc|1 BGdB BAGF:|2 BGdB BAGB||
|:AecA fcAg|cAfc AecB|AecA fcAg|1 cAdB G2 B2:|2 cAdB G3 F2||
